/* Created with GIMP */
#define nabaztagBW100x61_width 61
#define nabaztagBW100x61_height 100
static unsigned char nabaztagBW100x61_bits[] = {
   0xff, 0xff, 0xff, 0xff, 0xff, 0xff, 0xff, 0x1f, 0xff, 0xff, 0xfb, 0xff,
   0xff, 0xfd, 0xff, 0x1f, 0xff, 0xff, 0xf0, 0xff, 0x7f, 0xf8, 0xff, 0x1f,
   0xff, 0xff, 0xc0, 0xff, 0x7f, 0xf0, 0xff, 0x1f, 0xff, 0x7f, 0xe0, 0xff,
   0x3f, 0xf0, 0xff, 0x1f, 0xff, 0x7f, 0xc0, 0xff, 0x3f, 0xe0, 0xff, 0x1f,
   0xff, 0x3f, 0xc0, 0xff, 0x1f, 0xe0, 0xff, 0x1f, 0xff, 0x7f, 0x80, 0xff,
   0x1f, 0xe0, 0xff, 0x1f, 0xff, 0x3f, 0xc0, 0xff, 0x1f, 0xe0, 0xff, 0x1f,
   0xff, 0x3f, 0x80, 0xff, 0x1f, 0xc0, 0xff, 0x1f, 0xff, 0x3f, 0xc0, 0xff,
   0x1f, 0xe0, 0xff, 0x1f, 0xff, 0x3f, 0x80, 0xff, 0x1f, 0xc0, 0xff, 0x1f,
   0xff, 0x3f, 0x80, 0xff, 0x1f, 0xe0, 0xff, 0x1f, 0xff, 0x3f, 0x80, 0xff,
   0x1f, 0xc0, 0xff, 0x1f, 0xff, 0x3f, 0xc0, 0xff, 0x0f, 0xe0, 0xff, 0x1f,
   0xff, 0x3f, 0x80, 0xff, 0x1f, 0xc0, 0xff, 0x1f, 0xff, 0x3f, 0x80, 0xff,
   0x0f, 0xc0, 0xff, 0x1f, 0xff, 0x1f, 0x80, 0xff, 0x1f, 0xc0, 0xff, 0x1f,
   0xff, 0x3f, 0x80, 0xff, 0x0f, 0xc0, 0xff, 0x1f, 0xff, 0x3f, 0x80, 0xff,
   0x1f, 0xc0, 0xff, 0x1f, 0xff, 0x1f, 0x80, 0xff, 0x0f, 0xc0, 0xff, 0x1f,
   0xff, 0x1f, 0x80, 0xff, 0x1f, 0xc0, 0xff, 0x1f, 0xff, 0x1f, 0x80, 0xff,
   0x0f, 0xc0, 0xff, 0x1f, 0xff, 0x1f, 0x80, 0xff, 0x1f, 0xc0, 0xff, 0x1f,
   0xff, 0x1f, 0x80, 0xff, 0x0f, 0xc0, 0xff, 0x1f, 0xff, 0x1f, 0x80, 0xff,
   0x1f, 0xc0, 0xff, 0x1f, 0xff, 0x1f, 0x80, 0xff, 0x0f, 0xc0, 0xff, 0x1f,
   0xff, 0x1f, 0x80, 0xff, 0x1f, 0x80, 0xff, 0x1f, 0xff, 0x1f, 0x80, 0xff,
   0x0f, 0xc0, 0xff, 0x1f, 0xff, 0x1f, 0x80, 0xff, 0x1f, 0x80, 0xff, 0x1f,
   0xff, 0x1f, 0x80, 0xff, 0x0f, 0xc0, 0xff, 0x1f, 0xff, 0x1f, 0x80, 0xff,
   0x1f, 0x80, 0xff, 0x1f, 0xff, 0x1f, 0x80, 0xff, 0x0f, 0xc0, 0xff, 0x1f,
   0xff, 0x1f, 0x00, 0x03, 0x1c, 0x80, 0xff, 0x1f, 0xff, 0x1f, 0x80, 0x00,
   0x00, 0xc0, 0xff, 0x1f, 0xff, 0x0f, 0x00, 0x00, 0x00, 0x80, 0xff, 0x1f,
   0xff, 0x1f, 0x00, 0x00, 0x00, 0x80, 0xff, 0x1f, 0xff, 0x0f, 0x00, 0x00,
   0x00, 0x80, 0xff, 0x1f, 0xff, 0x1f, 0x00, 0x00, 0x00, 0x80, 0xff, 0x1f,
   0xff, 0x0f, 0x00, 0x00, 0x00, 0x80, 0xff, 0x1f, 0xff, 0x1f, 0x00, 0x00,
   0x00, 0x80, 0xff, 0x1f, 0xff, 0x1f, 0x00, 0x00, 0x00, 0x80, 0xff, 0x1f,
   0xff, 0x0f, 0x00, 0x00, 0x00, 0x80, 0xff, 0x1f, 0xff, 0x0f, 0x00, 0x00,
   0x00, 0x80, 0xff, 0x1f, 0xff, 0x0f, 0x00, 0x00, 0x00, 0x80, 0xff, 0x1f,
   0xff, 0x0f, 0x00, 0x00, 0x00, 0x00, 0xff, 0x1f, 0xff, 0x0f, 0x00, 0x00,
   0x00, 0x80, 0xff, 0x1f, 0xff, 0x07, 0xc0, 0x00, 0x30, 0x00, 0xff, 0x1f,
   0xff, 0x07, 0x80, 0x01, 0x30, 0x00, 0xff, 0x1f, 0xff, 0x07, 0x80, 0x01,
   0x30, 0x00, 0xff, 0x1f, 0xff, 0x07, 0xc0, 0x00, 0x30, 0x00, 0xff, 0x1f,
   0xff, 0x03, 0x80, 0x00, 0x20, 0x00, 0xfe, 0x1f, 0xff, 0x03, 0x00, 0x00,
   0x00, 0x00, 0xff, 0x1f, 0xff, 0x03, 0x00, 0x00, 0x00, 0x00, 0xfe, 0x1f,
   0xff, 0x03, 0x00, 0xf8, 0x01, 0x00, 0xfe, 0x1f, 0xff, 0x03, 0x00, 0xf0,
   0x03, 0x00, 0xfe, 0x1f, 0xff, 0x03, 0x00, 0x60, 0x00, 0x00, 0xfe, 0x1f,
   0xff, 0x01, 0x00, 0x40, 0x00, 0x00, 0xfe, 0x1f, 0xff, 0x01, 0x00, 0x60,
   0x00, 0x00, 0xfc, 0x1f, 0xff, 0x01, 0x00, 0x00, 0x00, 0x00, 0xfc, 0x1f,
   0xff, 0x01, 0x00, 0x00, 0x00, 0x00, 0xfe, 0x1f, 0xff, 0x01, 0x00, 0x00,
   0x00, 0x00, 0xfc, 0x1f, 0xff, 0x01, 0x00, 0x00, 0x00, 0x00, 0xfc, 0x1f,
   0xff, 0x00, 0x00, 0x00, 0x00, 0x00, 0xfc, 0x1f, 0xff, 0x00, 0x00, 0x00,
   0x00, 0x00, 0xfc, 0x1f, 0xff, 0x00, 0x00, 0x00, 0x00, 0x00, 0xf8, 0x1f,
   0xff, 0x00, 0x00, 0x00, 0x00, 0x00, 0xfc, 0x1f, 0xff, 0x00, 0x00, 0x00,
   0x00, 0x00, 0xf8, 0x1f, 0xff, 0x00, 0x00, 0x00, 0x00, 0x00, 0xf8, 0x1f,
   0x7f, 0x00, 0x00, 0x00, 0x00, 0x00, 0xf8, 0x1f, 0x7f, 0x00, 0x00, 0x00,
   0x00, 0x00, 0xf0, 0x1f, 0x7f, 0x00, 0x00, 0x00, 0x00, 0x00, 0xf0, 0x1f,
   0x7f, 0x00, 0x00, 0x00, 0x00, 0x00, 0xf0, 0x1f, 0x7f, 0x00, 0x00, 0x00,
   0x00, 0x00, 0xf0, 0x1f, 0x3f, 0x00, 0x00, 0x00, 0x00, 0x00, 0xe0, 0x1f,
   0x3f, 0x00, 0x00, 0x00, 0x00, 0x00, 0xe0, 0x1f, 0x3f, 0x00, 0x00, 0x00,
   0x00, 0x00, 0xe0, 0x1f, 0x3f, 0x00, 0x00, 0x00, 0x00, 0x00, 0xe0, 0x1f,
   0x1f, 0x00, 0x00, 0x00, 0x00, 0x00, 0xe0, 0x1f, 0x1f, 0x00, 0x00, 0x00,
   0x00, 0x00, 0xc0, 0x1f, 0x1f, 0x00, 0x00, 0x00, 0x00, 0x00, 0xc0, 0x1f,
   0x0f, 0x00, 0x00, 0x00, 0x00, 0x00, 0xc0, 0x1f, 0x0f, 0x00, 0x00, 0x00,
   0x00, 0x00, 0xc0, 0x1f, 0x0f, 0x00, 0x00, 0x00, 0x00, 0x00, 0x80, 0x1f,
   0x0f, 0x00, 0x00, 0x00, 0x00, 0x00, 0xc0, 0x1f, 0x0f, 0x00, 0x00, 0x00,
   0x00, 0x00, 0x80, 0x1f, 0x07, 0x00, 0x00, 0x00, 0x00, 0x00, 0x80, 0x1f,
   0x07, 0x00, 0x00, 0x00, 0x00, 0x00, 0x80, 0x1f, 0x07, 0x00, 0x00, 0x00,
   0x00, 0x00, 0x80, 0x1f, 0x07, 0x00, 0x00, 0x00, 0x00, 0x00, 0x00, 0x1f,
   0x07, 0x00, 0x00, 0x00, 0x00, 0x00, 0x80, 0x1f, 0x07, 0x00, 0x00, 0x00,
   0x00, 0x00, 0x00, 0x1f, 0x03, 0x00, 0x00, 0x00, 0x00, 0x00, 0x00, 0x1f,
   0x07, 0x00, 0x00, 0x00, 0x00, 0x00, 0x00, 0x1f, 0x07, 0x00, 0x00, 0x00,
   0x00, 0x00, 0x80, 0x1f, 0x0f, 0x00, 0x00, 0x00, 0x00, 0x00, 0x80, 0x1f,
   0x3f, 0x00, 0x00, 0x00, 0x00, 0x00, 0xf0, 0x1f, 0xff, 0x01, 0x00, 0x00,
   0x00, 0x00, 0xfc, 0x1f, 0xff, 0x17, 0x00, 0x00, 0x00, 0xc0, 0xff, 0x1f,
   0xff, 0x7f, 0x01, 0x00, 0x00, 0xf8, 0xff, 0x1f };
